!!! OTL: Berkowitz494
!!! Chapter: 1
!!! Section: IV
!!! Page: 123
!!! Mode: 
!!! Encoder: DJB
**kern
*staff1
*I"Piano
=1-
*clefF4
*k[b-e-]
*g:
*M4/4
4D\
4e-\
4d\
4c\
=2
8B-\L
16A\L
16G\JJ
[4A\
4A\]
8F\L
8E-\J
=3
8D\L
8C\
8BBn\
8A-\J
8G/L
8F/
8GG/
8F/J
=4
8E-\L
16D\L
16C\JJ
[4D\
4D\]
4C/
=5
8BBn\L
8F\
8En\
8B-\J
8A\L
8E-\
8F\
8E-\J
=6
!!linebreak:original
8D\L
8A-\
8G\
8C\J
8G\L
8D\
8BB-\
8C\J
=7
8D\L
16E-\L
16C#\JJ
4D\
8r
16E-\LL
16F#\JJ
16G\LL
16A\
16B-\
16c\JJ
=8
8d\L
16e-\L
16c#\JJ
4d\
8r
8G\L
8A\
8F#\J
=9
1GG
==
*-
